icons/svg/tourist_colored/information_board.svg

<?xml version="1.0" encoding="UTF-8" standalone="no"?>
<!-- Created with Inkscape (http://www.inkscape.org/) -->

<svg
   xmlns:dc="http://purl.org/dc/elements/1.1/"
   xmlns:cc="http://creativecommons.org/ns#"
   xmlns:rdf="http://www.w3.org/1999/02/22-rdf-syntax-ns#"
   xmlns:svg="http://www.w3.org/2000/svg"
   xmlns="http://www.w3.org/2000/svg"
   xmlns:sodipodi="http://sodipodi.sourceforge.net/DTD/sodipodi-0.dtd"
   xmlns:inkscape="http://www.inkscape.org/namespaces/inkscape"
   version="1.0"
   width="580"
   height="580"
   id="svg2"
   sodipodi:version="0.32"
   inkscape:version="0.91 r"
   sodipodi:docname="information_board.svg"
   inkscape:output_extension="org.inkscape.output.svg.inkscape">
  <metadata
     id="metadata10">
    <rdf:RDF>
      <cc:Work
         rdf:about="">
        <dc:format>image/svg+xml</dc:format>
        <dc:type
           rdf:resource="http://purl.org/dc/dcmitype/StillImage" />
        <cc:license
           rdf:resource="http://web.resource.org/cc/PublicDomain" />
        <dc:language>en</dc:language>
        <dc:title />
      </cc:Work>
    </rdf:RDF>
  </metadata>
  <sodipodi:namedview
     inkscape:window-height="1021"
     inkscape:window-width="1680"
     inkscape:pageshadow="2"
     inkscape:pageopacity="0.0"
     guidetolerance="10.0"
     gridtolerance="10.0"
     objecttolerance="10.0"
     borderopacity="1.0"
     bordercolor="#666666"
     pagecolor="#ffffff"
     id="base"
     showgrid="false"
     inkscape:zoom="0.50000001"
     inkscape:cx="756.35205"
     inkscape:cy="214.52694"
     inkscape:window-x="0"
     inkscape:window-y="0"
     inkscape:current-layer="svg2"
     inkscape:window-maximized="1" />
  <defs
     id="defs4">
    <inkscape:perspective
       sodipodi:type="inkscape:persp3d"
       inkscape:vp_x="0 : 290 : 1"
       inkscape:vp_y="0 : 1000 : 0"
       inkscape:vp_z="580 : 290 : 1"
       inkscape:persp3d-origin="290 : 193.33333 : 1"
       id="perspective12" />
    <style
       type="text/css"
       id="style6">
   
    .fil0 {fill:#EF7900}
   
  </style>
    <inkscape:perspective
       id="perspective6807"
       inkscape:persp3d-origin="29.116032 : 19.410688 : 1"
       inkscape:vp_z="58.232063 : 29.116032 : 1"
       inkscape:vp_y="0 : 1000 : 0"
       inkscape:vp_x="0 : 29.116032 : 1"
       sodipodi:type="inkscape:persp3d" />
  </defs>
  <g
     id="g1327">
    <path
       d="M 66.275,1.768 C 24.94,1.768 1.704,23.139 1.704,66.804 L 1.704,516.927 C 1.704,557.771 22.598,579.156 63.896,579.156 L 515.92,579.156 C 557.227,579.156 578.149,558.84 578.149,516.927 L 578.149,66.804 C 578.149,24.203 557.227,1.768 514.627,1.768 C 514.624,1.768 66.133,1.625 66.275,1.768 z"
       style="fill:#111111;stroke:#eeeeee;stroke-width:3.40799999"
       id="path1329" />
  </g>
  <path
     style="font-style:normal;font-variant:normal;font-weight:bold;font-stretch:normal;font-size:48px;line-height:100%;font-family:Garamond;-inkscape-font-specification:'Garamond Bold';text-align:start;writing-mode:lr-tb;text-anchor:start;fill:#ffffff;fill-opacity:1;stroke:none;stroke-width:1px;stroke-linecap:butt;stroke-linejoin:miter;stroke-opacity:1"
     d="m 107.27933,100.99245 c 0,-12.717814 4.12154,-23.13963 12.36493,-31.265752 8.24325,-8.125068 18.84188,-12.187827 31.79575,-12.188279 13.89564,4.52e-4 25.43636,4.29881 34.62185,12.894925 9.18534,8.597018 13.77793,18.312338 13.77824,29.145962 -3.1e-4,8.008244 -1.82556,16.016044 -5.47605,24.023384 -3.65066,8.00825 -9.42109,14.42624 -17.31086,19.25413 -7.89022,4.82849 -15.95696,7.24265 -24.20005,7.24237 -11.30528,2.8e-4 -21.72708,-4.8279 -31.26575,-14.48473 -9.53881,-9.65608 -14.30806,-21.19665 -14.30806,-34.62201 l 0,0 z m -49.459914,421.46913 -0.70665,-22.96356 39.921254,-5.29924 c 5.88801,-1.6486 9.95077,-4.06276 12.18844,-7.24237 2.23735,-3.17945 3.3561,-10.30409 3.3561,-21.37376 l 0,-3.88609 c 0,-2.82614 0.17666,-7.94886 0.52998,-15.36789 0.35318,-7.41887 0.52985,-13.95475 0.52985,-19.6073 0,-4.47487 -0.35333,-13.07144 -1.05983,-25.78985 l 0.35334,-17.66419 -0.35334,-16.60451 0.70664,-57.58543 c -1.4e-4,-7.30099 -0.70664,-14.83774 -2.11978,-22.61025 -2.59082,-3.53262 -7.3013,-6.59435 -14.1314,-9.18533 -6.830264,-2.59053 -18.724144,-4.47472 -35.681684,-5.65256 l 0,-19.78397 c 24.25883,-1.41298 45.573674,-6.47662 63.944484,-15.19137 12.48267,-5.65227 26.0253,-15.66196 40.62792,-30.02912 l 23.67005,0 c 0.94195,29.20505 1.41299,67.1244 1.41314,113.75772 l -2.47295,144.14032 c -1.5e-4,9.89199 0.47089,18.84188 1.41298,26.84967 7.30116,2.59083 19.19504,5.18151 35.68184,7.77235 6.35905,0.94209 11.42269,2.11963 15.19122,3.53276 l -0.35317,19.43066 c -6.35936,0.2356 -11.06984,0.35331 -14.13141,0.35331 -3.53307,0 -8.95004,-0.23545 -16.25119,-0.70649 -24.02353,-1.1777 -56.17244,-1.76646 -96.44686,-1.76646 -11.54058,0 -22.727984,0.4121 -33.562064,1.23648 -10.83407,0.82436 -18.25309,1.23647 -22.25691,1.23647 l 0,0 z"
     id="flowRoot6828"
     inkscape:connector-curvature="0" />
  <path
     style="fill:#ffffff"
     inkscape:connector-curvature="0"
     id="path10"
     d="m 524.36297,148.84843 -255.36643,0 c -5.22427,0 -9.45855,4.23506 -9.45855,9.45854 l 0,174.97356 c 0,5.22348 4.23428,9.45854 9.45855,9.45854 l 7.68427,0 0,126.50169 c 0,3.26477 10.51951,5.9108 13.78507,5.9108 3.26477,0 11.03732,-2.64603 11.03732,-5.9108 l 0,-126.50169 190.27163,0 0,126.50169 c 0,3.26477 9.00999,5.9108 12.27555,5.9108 3.26477,0 12.62832,-2.64603 12.62832,-5.9108 l 0,-126.50169 7.68427,0 c 5.22427,0 9.45855,-4.23506 9.45855,-9.45854 l 0,-174.97356 c 0,-5.22426 -4.23428,-9.45854 -9.45855,-9.45854 z m -78.81093,163.47749 -159.21879,0 0,-3.94106 159.21879,0 z m 0,-15.76424 -159.21879,0 0,-3.94105 159.21879,0 z m 0,-15.76422 -159.21879,0 0,-3.94106 159.21879,0 z m 0,-15.76424 -159.21879,0 0,-3.94106 159.21879,0 z m 0,-15.76423 -159.21879,0 0,-3.94106 159.21879,0 z m 0,-23.25226 -159.21879,0 0,-59.9041 159.21879,0 z m 66.99801,93.79721 -51.23377,0 0,-89.06793 51.23377,0 z"
     sodipodi:nodetypes="ssssscsssccssscssssccccccccccccccccccccccccccccccccccc" />
</svg>

<svg width="580" height="580" viewBox="0 0 580 580" fill="none" xmlns="http://www.w3.org/2000/svg">
<g clip-path="url(#clip0)">
<path d="M66.275 1.76799C24.94 1.76799 1.70398 23.139 1.70398 66.804V516.927C1.70398 557.771 22.598 579.156 63.896 579.156H515.92C557.227 579.156 578.149 558.84 578.149 516.927V66.804C578.149 24.203 557.227 1.76799 514.627 1.76799C514.624 1.76799 66.133 1.62499 66.275 1.76799Z" fill="#111111" stroke="#EEEEEE" stroke-width="3.408"/>
<path d="M107.279 100.992C107.279 88.2746 111.401 77.8528 119.644 69.7267C127.888 61.6016 138.486 57.5389 151.44 57.5384C165.336 57.5389 176.876 61.8372 186.062 70.4333C195.247 79.0304 199.84 88.7457 199.84 99.5793C199.84 107.588 198.015 115.595 194.364 123.603C190.713 131.611 184.943 138.029 177.053 142.857C169.163 147.685 161.096 150.099 152.853 150.099C141.548 150.099 131.126 145.271 121.587 135.614C112.049 125.958 107.279 114.418 107.279 100.992V100.992ZM57.8194 522.462L57.1128 499.498L97.034 494.199C102.922 492.55 106.985 490.136 109.222 486.956C111.46 483.777 112.579 476.652 112.579 465.583V461.697C112.579 458.87 112.755 453.748 113.109 446.329C113.462 438.91 113.638 432.374 113.638 426.721C113.638 422.247 113.285 413.65 112.579 400.932L112.932 383.267L112.579 366.663L113.285 309.077C113.285 301.776 112.579 294.24 111.165 286.467C108.575 282.935 103.864 279.873 97.034 277.282C90.2038 274.691 78.3099 272.807 61.3524 271.629V251.845C85.6112 250.432 106.926 245.369 125.297 236.654C137.78 231.002 151.322 220.992 165.925 206.625H189.595C190.537 235.83 191.008 273.749 191.008 320.383L188.535 464.523C188.535 474.415 189.006 483.365 189.948 491.372C197.249 493.963 209.143 496.554 225.63 499.145C231.989 500.087 237.053 501.264 240.821 502.678L240.468 522.108C234.109 522.344 229.398 522.462 226.336 522.462C222.803 522.462 217.386 522.226 210.085 521.755C186.062 520.577 153.913 519.989 113.638 519.989C102.098 519.989 90.9104 520.401 80.0764 521.225C69.2423 522.049 61.8233 522.462 57.8194 522.462V522.462Z" fill="white"/>
<path d="M524.363 148.848H268.997C263.772 148.848 259.538 153.084 259.538 158.307V333.281C259.538 338.504 263.772 342.739 268.997 342.739H276.681V469.241C276.681 472.506 287.2 475.152 290.466 475.152C293.731 475.152 301.503 472.506 301.503 469.241V342.739H491.775V469.241C491.775 472.506 500.785 475.152 504.05 475.152C507.315 475.152 516.679 472.506 516.679 469.241V342.739H524.363C529.587 342.739 533.822 338.504 533.822 333.281V158.307C533.822 153.083 529.587 148.848 524.363 148.848ZM445.552 312.326H286.333V308.385H445.552V312.326ZM445.552 296.562H286.333V292.621H445.552V296.562ZM445.552 280.797H286.333V276.856H445.552V280.797ZM445.552 265.033H286.333V261.092H445.552V265.033ZM445.552 249.269H286.333V245.328H445.552V249.269ZM445.552 226.017H286.333V166.113H445.552V226.017ZM512.55 319.814H461.316V230.746H512.55V319.814Z" fill="white"/>
</g>
<defs>
<clipPath id="clip0">
<path d="M0 0H580V580H0V0Z" fill="white"/>
</clipPath>
</defs>
</svg>
